packages/ndla-icons/svg/common/LogOut.svg

<svg width="24" height="24" viewBox="0 0 24 24" fill="none" xmlns="http://www.w3.org/2000/svg" data-license="CC-BY 4.0" data-source="Labs AS">
    <path d="M5 5H11C11.55 5 12 4.55 12 4C12 3.45 11.55 3 11 3H5C3.9 3 3 3.9 3 5V19C3 20.1 3.9 21 5 21H11C11.55 21 12 20.55 12 20C12 19.45 11.55 19 11 19H5V5Z" fill="white"/>
    <path d="M20.65 11.65L17.86 8.86004C17.7905 8.78859 17.7012 8.73952 17.6036 8.71911C17.506 8.69869 17.4045 8.70787 17.3121 8.74545C17.2198 8.78304 17.1408 8.84733 17.0851 8.93009C17.0295 9.01286 16.9999 9.11033 17 9.21004V11H10C9.45 11 9 11.45 9 12C9 12.55 9.45 13 10 13H17V14.79C17 15.24 17.54 15.46 17.85 15.14L20.64 12.35C20.84 12.16 20.84 11.84 20.65 11.65Z" fill="white"/>
</svg>

<svg xmlns="http://www.w3.org/2000/svg" fill="none" data-license="CC-BY 4.0" data-source="Labs AS" viewBox="0 0 24 24">
  <path fill="#fff" d="M5 5h6a1 1 0 0 0 0-2H5a2 2 0 0 0-2 2v14c0 1.1.9 2 2 2h6c.6 0 1-.4 1-1s-.4-1-1-1H5V5Z"/>
  <path fill="#fff" d="M20.6 11.7 18 8.9a.5.5 0 0 0-.9.3V11h-7a1 1 0 0 0-1 1c0 .6.4 1 1 1h7v1.8c0 .4.5.7.9.3l2.7-2.8c.2-.1.2-.5 0-.7Z"/>
</svg>
